X:15
T:John Come Kiss Me. Le4.015
B:L.Leadley MS#4 c1850
Z:Village Music Project, 2016 Steve Mansfield
M:C|
L:1/4
Q:2/4=75
K:G
D | G>A B/A/B/G/ | ccc (B/A/) | G>A B/A/B/G/ | ddd D |
G>A B/A/B/G/ | cc ec | e/f/g/e/ f/g/a/f/ | ggg :|
|: (e/f/) | (gg/a/) g/f/e/d/ | ccc (f/g/) | a(a/b/) a/g/f/e/ | ddd (e/f/) |
g(g/a/) g/f/e/d/ | cc ec | e/f/g/e/ f/g/a/f/ | ggg :|

